svg/color/dodo.svg

<svg width="66" height="66" viewBox="0 0 66 66" fill="none" xmlns="http://www.w3.org/2000/svg">
<g clip-path="url(#clip0)">
<path d="M33.0181 65.253C50.9673 65.253 65.5181 50.7022 65.5181 32.753C65.5181 14.8037 50.9673 0.252991 33.0181 0.252991C15.0688 0.252991 0.518066 14.8037 0.518066 32.753C0.518066 50.7022 15.0688 65.253 33.0181 65.253Z" fill="#FFF706"/>
<path fill-rule="evenodd" clip-rule="evenodd" d="M29.4486 44.8299C29.3197 45.185 29.1424 45.4893 28.9168 45.7428C28.6913 45.9966 28.4219 46.1973 28.1088 46.3448C27.7957 46.4923 27.4596 46.5662 27.1004 46.5662C26.7414 46.5662 26.4053 46.4923 26.0921 46.3448C25.779 46.1973 25.5098 45.9966 25.2842 45.7428C25.0586 45.4893 24.8812 45.185 24.7524 44.8299C24.6236 44.4747 24.559 44.0943 24.559 43.6885C24.559 43.2824 24.6236 42.902 24.7524 42.5471C24.8812 42.1918 25.0586 41.8875 25.2842 41.6339C25.5098 41.3801 25.779 41.1795 26.0921 41.032C26.4053 40.8845 26.7414 40.8106 27.1004 40.8106C27.4596 40.8106 27.7957 40.8845 28.1088 41.032C28.4219 41.1795 28.6913 41.3801 28.9168 41.6339C29.1424 41.8875 29.3197 42.1918 29.4486 42.5471C29.5774 42.902 29.6419 43.2824 29.6419 43.6885C29.6419 44.0943 29.5774 44.4747 29.4486 44.8299ZM31.7955 41.6879C31.5368 41.073 31.1834 40.541 30.7356 40.0925C30.2877 39.6438 29.7588 39.2901 29.1493 39.0311C28.5397 38.7722 27.8839 38.6428 27.182 38.6428C26.4802 38.6428 25.8221 38.7722 25.208 39.0311C24.5936 39.2901 24.0626 39.6438 23.6147 40.0925C23.1668 40.541 22.8135 41.073 22.5549 41.6879C22.2963 42.303 22.1671 42.9573 22.1671 43.6511C22.1671 44.3447 22.2963 44.999 22.5549 45.6141C22.8135 46.2292 23.1668 46.761 23.6147 47.2095C24.0626 47.6582 24.5936 48.0118 25.208 48.2709C25.8221 48.5298 26.4802 48.6591 27.182 48.6591C27.8839 48.6591 28.5397 48.5298 29.1493 48.2709C29.7588 48.0118 30.2877 47.6582 30.7356 47.2095C31.1834 46.761 31.5368 46.2292 31.7955 45.6141C32.054 44.999 32.1834 44.3447 32.1834 43.6511C32.1834 42.9573 32.054 42.303 31.7955 41.6879Z" fill="black"/>
<path fill-rule="evenodd" clip-rule="evenodd" d="M18.4888 44.8101C18.3607 45.163 18.1851 45.4682 17.9624 45.7258C17.7395 45.9834 17.4763 46.1861 17.1728 46.334C16.8693 46.4818 16.5469 46.5558 16.2053 46.5558H14.5976V40.7462H16.2053C16.5469 40.7462 16.8693 40.8225 17.1728 40.9752C17.4763 41.128 17.7395 41.3353 17.9624 41.5977C18.1851 41.8599 18.3607 42.1701 18.4888 42.5277C18.6167 42.8854 18.6808 43.2695 18.6808 43.6796C18.6808 44.0803 18.6167 44.4572 18.4888 44.8101ZM20.822 41.6978C20.561 41.0825 20.2054 40.5507 19.7551 40.1023C19.3043 39.6541 18.7732 39.2988 18.1615 39.0363C17.5498 38.7739 16.8976 38.6428 16.2053 38.6428H12.1508V48.6591H16.2053C16.8976 48.6591 17.5498 48.5305 18.1615 48.2728C18.7732 48.0152 19.3043 47.6623 19.7551 47.2139C20.2054 46.7656 20.561 46.2363 20.822 45.6256C21.0827 45.0153 21.2132 44.3664 21.2132 43.6796C21.2132 42.9737 21.0827 42.313 20.822 41.6978Z" fill="black"/>
<path fill-rule="evenodd" clip-rule="evenodd" d="M51.1506 44.8299C51.0218 45.185 50.8442 45.4893 50.6188 45.7428C50.3934 45.9966 50.1239 46.1973 49.8109 46.3448C49.4979 46.4923 49.1616 46.5662 48.8021 46.5662C48.4432 46.5662 48.1073 46.4923 47.7942 46.3448C47.481 46.1973 47.2119 45.9966 46.9861 45.7428C46.7606 45.4893 46.5833 45.185 46.4542 44.8299C46.3253 44.4747 46.261 44.0943 46.261 43.6885C46.261 43.2824 46.3253 42.902 46.4542 42.5471C46.5833 42.1918 46.7606 41.8875 46.9861 41.6339C47.2119 41.3801 47.481 41.1795 47.7942 41.032C48.1073 40.8845 48.4432 40.8106 48.8021 40.8106C49.1616 40.8106 49.4979 40.8845 49.8109 41.032C50.1239 41.1795 50.3934 41.3801 50.6188 41.6339C50.8442 41.8875 51.0218 42.1918 51.1506 42.5471C51.2794 42.902 51.3438 43.2824 51.3438 43.6885C51.3438 44.0943 51.2794 44.4747 51.1506 44.8299ZM53.4973 41.6879C53.2391 41.073 52.8856 40.541 52.4378 40.0925C51.9901 39.6438 51.4612 39.2901 50.8513 39.0311C50.242 38.7722 49.5861 38.6428 48.8838 38.6428C48.1824 38.6428 47.5241 38.7722 46.9101 39.0311C46.2958 39.2901 45.7648 39.6438 45.3169 40.0925C44.8689 40.541 44.5157 41.073 44.257 41.6879C43.9983 42.303 43.8691 42.9573 43.8691 43.6511C43.8691 44.3447 43.9983 44.999 44.257 45.6141C44.5157 46.2292 44.8689 46.761 45.3169 47.2095C45.7648 47.6582 46.2958 48.0118 46.9101 48.2709C47.5241 48.5298 48.1824 48.6591 48.8838 48.6591C49.5861 48.6591 50.242 48.5298 50.8513 48.2709C51.4612 48.0118 51.9901 47.6582 52.4378 47.2095C52.8856 46.761 53.2391 46.2292 53.4973 45.6141C53.756 44.999 53.8854 44.3447 53.8854 43.6511C53.8854 42.9573 53.756 42.303 53.4973 41.6879Z" fill="black"/>
<path fill-rule="evenodd" clip-rule="evenodd" d="M40.1361 44.8889C40.0096 45.2431 39.8361 45.5495 39.6159 45.808C39.3954 46.0665 39.1352 46.2699 38.8352 46.4183C38.5352 46.5667 38.2165 46.641 37.879 46.641H36.2897V40.8106H37.879C38.2165 40.8106 38.5352 40.8871 38.8352 41.0403C39.1352 41.1937 39.3954 41.4018 39.6159 41.6651C39.8361 41.9282 40.0096 42.2395 40.1361 42.5985C40.2626 42.9574 40.3259 43.3429 40.3259 43.7544C40.3259 44.1566 40.2626 44.5348 40.1361 44.8889ZM42.524 41.6978C42.2632 41.0825 41.9074 40.5507 41.457 40.1023C41.0063 39.6541 40.4752 39.2988 39.8635 39.0363C39.2518 38.7739 38.5997 38.6428 37.9074 38.6428H33.8528V48.6591H37.9074C38.5997 48.6591 39.2518 48.5305 39.8635 48.2728C40.4752 48.0152 41.0063 47.6623 41.457 47.2139C41.9074 46.7656 42.2632 46.2363 42.524 45.6256C42.7847 45.0153 42.9152 44.3664 42.9152 43.6796C42.9152 42.9737 42.7847 42.313 42.524 41.6978Z" fill="black"/>
<path fill-rule="evenodd" clip-rule="evenodd" d="M28.0398 27.162C27.4343 27.162 26.9437 27.7127 26.9437 28.3917V31.4122C26.9437 32.0914 27.4343 32.6419 28.0398 32.6419C28.645 32.6419 29.1356 32.0914 29.1356 31.4122V28.3917C29.1356 27.7127 28.645 27.162 28.0398 27.162Z" fill="black"/>
<path fill-rule="evenodd" clip-rule="evenodd" d="M36.8074 27.162C36.2022 27.162 35.7115 27.7127 35.7115 28.3917V31.4122C35.7115 32.0914 36.2022 32.6419 36.8074 32.6419C37.4128 32.6419 37.9035 32.0914 37.9035 31.4122V28.3917C37.9035 27.7127 37.4128 27.162 36.8074 27.162Z" fill="black"/>
<path fill-rule="evenodd" clip-rule="evenodd" d="M36.5331 15.9757C36.6921 15.7258 36.8363 15.4486 36.9576 15.1487C37.1667 14.6316 37.2822 14.1153 37.3102 13.6453C37.424 12.6532 37.1846 11.8475 36.6215 11.6074C36.068 11.3715 35.3424 11.7412 34.7207 12.4869C34.7218 12.4374 34.7227 12.388 34.7227 12.338C34.7227 10.2703 33.784 8.59387 32.626 8.59387C31.468 8.59387 30.5293 10.2703 30.5293 12.338C30.5293 12.4847 30.5344 12.6291 30.5436 12.7714C29.8392 11.8047 28.9132 11.3094 28.2518 11.6286C27.4245 12.0279 27.3245 13.5486 28.0284 15.0253C28.1464 15.2732 28.4111 15.699 28.5547 15.9096C19.5754 17.3417 14.4637 24.6271 13.8201 36.5839H18.8428C19.3725 26.7406 23.9472 21.1807 32.2117 21.3512C39.801 21.5079 45.6011 26.4912 45.5232 36.5839H50.5456C50.6373 24.6768 44.7851 17.8263 36.5331 15.9757Z" fill="black"/>
</g>
<defs>
<clipPath id="clip0">
<rect width="65" height="65" fill="white" transform="translate(0.518066 0.252991)"/>
</clipPath>
</defs>
</svg>

<svg width="66" height="66" viewBox="0 0 66 66" fill="none" xmlns="http://www.w3.org/2000/svg"><g clip-path="url(#clip0)"><path d="M33.018 65.253c17.95 0 32.5-14.55 32.5-32.5s-14.55-32.5-32.5-32.5-32.5 14.55-32.5 32.5 14.55 32.5 32.5 32.5z" fill="#FFF706"/><path fill-rule="evenodd" clip-rule="evenodd" d="M29.449 44.83c-.13.355-.307.66-.532.913a2.486 2.486 0 01-.808.602c-.313.147-.65.221-1.009.221-.359 0-.695-.074-1.008-.221a2.486 2.486 0 01-.808-.602 2.784 2.784 0 01-.532-.913 3.323 3.323 0 01-.193-1.142c0-.406.065-.786.193-1.14.13-.356.307-.66.532-.914.226-.254.495-.455.808-.602.313-.147.65-.221 1.008-.221.36 0 .696.074 1.009.221.313.148.582.348.808.602.225.254.403.558.532.913.128.355.193.735.193 1.142 0 .405-.065.786-.193 1.14zm2.346-3.142a4.946 4.946 0 00-1.06-1.596 4.98 4.98 0 00-3.554-1.45 5.03 5.03 0 00-3.566 1.45 4.954 4.954 0 00-1.06 1.596 5.013 5.013 0 00-.388 1.963c0 .694.13 1.348.388 1.963a4.94 4.94 0 001.06 1.596 5.029 5.029 0 003.567 1.45 4.98 4.98 0 003.554-1.45 5.025 5.025 0 001.447-3.559c0-.694-.129-1.348-.387-1.963zM18.489 44.81a2.894 2.894 0 01-.527.916c-.223.257-.486.46-.79.608a2.181 2.181 0 01-.967.222h-1.607v-5.81h1.607c.342 0 .664.076.968.23.303.152.567.36.79.622.222.262.398.572.526.93.128.357.192.742.192 1.152 0 .4-.064.777-.192 1.13zm2.333-3.112a4.955 4.955 0 00-1.067-1.596 5.07 5.07 0 00-1.593-1.066 4.91 4.91 0 00-1.957-.393h-4.054v10.016h4.054c.693 0 1.345-.128 1.957-.386a4.967 4.967 0 001.593-1.06c.45-.447.806-.977 1.067-1.587.26-.61.391-1.26.391-1.946 0-.706-.13-1.367-.391-1.982zM51.15 44.83c-.128.355-.306.66-.531.913a2.485 2.485 0 01-.808.602c-.313.147-.65.221-1.009.221-.359 0-.695-.074-1.008-.221a2.488 2.488 0 01-.808-.602 2.79 2.79 0 01-.532-.913 3.32 3.32 0 01-.193-1.142c0-.406.064-.786.193-1.14.13-.356.307-.66.532-.914.226-.254.495-.455.808-.602a2.335 2.335 0 011.008-.221c.36 0 .696.074 1.009.221.313.148.582.348.808.602.225.254.403.558.532.913.128.355.193.735.193 1.142 0 .405-.065.786-.193 1.14zm2.347-3.142a4.937 4.937 0 00-1.06-1.596 4.978 4.978 0 00-3.554-1.45 5.029 5.029 0 00-3.566 1.45 4.954 4.954 0 00-1.06 1.596 5.011 5.011 0 00-.388 1.963c0 .694.13 1.348.388 1.963a4.94 4.94 0 001.06 1.596 5.029 5.029 0 003.567 1.45 4.978 4.978 0 003.554-1.45c.448-.449.801-.98 1.06-1.596.258-.615.387-1.27.387-1.963 0-.694-.129-1.348-.388-1.963zm-13.361 3.201c-.126.354-.3.66-.52.919a2.43 2.43 0 01-.78.61c-.3.149-.62.223-.957.223h-1.59v-5.83h1.59c.338 0 .656.076.956.23.3.153.56.36.78.624.221.263.395.575.521.934.127.358.19.744.19 1.155 0 .403-.063.78-.19 1.135zm2.388-3.191a4.95 4.95 0 00-1.067-1.596 5.07 5.07 0 00-1.593-1.066 4.91 4.91 0 00-1.957-.393h-4.054v10.016h4.054c.693 0 1.345-.128 1.957-.386a4.966 4.966 0 001.593-1.06c.45-.447.806-.977 1.067-1.587.26-.61.391-1.26.391-1.946 0-.706-.13-1.367-.391-1.982zM28.04 27.162c-.606 0-1.096.55-1.096 1.23v3.02c0 .68.49 1.23 1.096 1.23.605 0 1.096-.55 1.096-1.23v-3.02c0-.68-.491-1.23-1.096-1.23zm8.767 0c-.605 0-1.096.55-1.096 1.23v3.02c0 .68.491 1.23 1.096 1.23.606 0 1.096-.55 1.096-1.23v-3.02c0-.68-.49-1.23-1.096-1.23z" fill="#000"/><path fill-rule="evenodd" clip-rule="evenodd" d="M36.533 15.976a5.118 5.118 0 00.777-2.33c.114-.993-.125-1.799-.689-2.039-.553-.236-1.279.134-1.9.88a6.68 6.68 0 00.002-.149c0-2.068-.939-3.744-2.097-3.744s-2.097 1.676-2.097 3.744c0 .147.005.291.015.433-.705-.966-1.63-1.462-2.292-1.142-.828.399-.927 1.92-.224 3.396a8.6 8.6 0 00.527.885c-8.98 1.432-14.091 8.717-14.735 20.674h5.023c.53-9.843 5.104-15.403 13.369-15.233 7.589.157 13.39 5.14 13.311 15.233h5.023c.091-11.907-5.76-18.758-14.013-20.608z" fill="#000"/></g><defs><clipPath id="clip0"><path fill="#fff" transform="translate(.518 .253)" d="M0 0h65v65H0z"/></clipPath></defs></svg>
